X:1
T:Tu pauperum refugium
T:Josquin des Prez
T:Tu pauperum refugium
T:Copyright © 2015 by The Choral Public Domain Library. Edition may be freely distributed, duplicated, performed or recorded.
T:Copyright © 2015 by The Choral Public Domain Library. Edition may be freely distributed, duplicated, performed or recorded.
T:Copyright © 2015 by The Choral Public Domain Library. Edition may be freely distributed, duplicated, performed or recorded.
T:Copyright © 2015 by The Choral Public Domain Library. Edition may be freely distributed, duplicated, performed or recorded.
T:Copyright © 2015 by The Choral Public Domain Library. Edition may be freely distributed, duplicated, performed or recorded.
C:Josquin des Prez
Z:Copyright © 2015 by The Choral Public Domain Library. Edition may be freely distributed, duplicated, performed or recorded.
%%score [ 1 2 3 4 ]
L:1/8
Q:1/4=48
M:2/1
K:D
V:1 treble nm="SOPRANO" snm="S."
V:2 treble nm="ALTO" snm="A."
V:3 treble-8 transpose=-12 nm="TENOR" snm="T."
V:4 bass nm="BASS" snm="B."
V:1
"^You refuge of the poor, relief of the weak,hope of the refugee, strength of the afflicted,path for the wayward, truth and life,and now Lord Savior, only in you do I seek solace,I adore you, true God, I hope in you, I trust in you,my salvation, Jesus Christ, help me, never forsake mein the hour of the death of my spirit." A16 | %1
w: Tu|
 A8 A8 | B8 d8 | d6 c2 B8 | A16 | z8 A8 | F8 G8 | A8 D8 | d12 c4- | c2 B2 B8 ^A4 | B8 z4 d4 | %11
w: pau- pe-|rum re-|fu- * gi-|um,|tu|lan- *|guo- rum|re- me-|* * * di-|um, spes|
 c8 B8 | A8 z4 A4 | A8 B8 | A8 z4 A4 | A16 | G8 F8- | F4 E2 D2 E8 | F16- | F16 | F12 G4 | %21
w: ex- su-|lum, for-|ti- tu-|do la-|bo-|ran- *|* * * ti-|um,|_|vi- *|
 A8 B6 A2 | B4 E4 F8 | E8 z4 e4- | e4 d4 e4 c4- | c4 d8 c2 B2 | A8 z8 | z16 | z16 | z16 | z16 | %31
w: ||a er-|* * ran- *|* * ti- *|um,|||||
 z16 | z16 ||[M:3/2] A4 A4 A4 | B8 c4 | d6 c2 B4 | A8 z4 | A4 A4 A4 | B6 A2 G2 F2 | F8 E4 | %40
w: ||Et nunc, Re-|demp- tor|Do- * mi-|ne,|ad te so-|lum _ con- *|fu- gi-|
 F4 z4 F4 | F4 F4 F4 | A4 B4 c4 | d6 cB A4 | B8 ^A4 |[M:2/1] B8 z4 d4 | c4 d8 c2 B2 | A8 z8 | z16 | %49
w: o, te|ve- rum De-|um _ a-|do- * * *||ro. In|te spe- * *|ro,||
 z8 z4 d4 | c8 B8 | A8 z4 B4 | A8 G8 | F8 z4 G4- | G2 F2 F8 E4 | F8 z8 | d8 d8 | c8 c8 | B8 B8 | %59
w: sa-|lus me-|a, Je-|su Chri-|ste, ad-|* * ju- va|me.|Ne un-|quam ob-|dor- mi-|
 A8 z4 A4 | A4 G2 F2 A4 D4 | z4 d8 c2 B2 | c4 F4 F8 | G8 F8- | F4 E2 D2 E8 | F16- | F16- | F16 |] %68
w: at in|mor- * * * te|a- * *|* ni- ma|me- *||a.|_||
V:2
 F16 | F8 F8 | F8 F8 | G8 G8 | F16 | z8 F8 | F8 E6 D2 | C8 B,8 | z4 D6 E2 F4 | G8 F8 | F8 z4 D4 | %11
w: Tu|pau- pe-|rum re-|fu- gi-|um,|tu|lan- guo- *|* rum|re- * *|me- di-|um, spes|
 E4 F4 G8 | F8 z4 F4 | F8 G8 | F8 z4 F4 | F8 F8 | E8 D4 C4- | C4 B,2 A,2 B,8 | C8 C8 | D12 C2 B,2 | %20
w: ex- * su-|lum, for-|ti- tu-|do la-|bo- ran-|||* ti-|um, _ _|
 A,4 B,8 A,2 G,2 | F,8 E,8 | z4 E8 D4 | E6 D2 E4 A,4 | B,8 A,6 G,2 | A,4 B,4 D8 | C8 z8 | z16 | %28
w: _ vi- * *|* a|er- *|ran- * * *||* * ti-|um,||
 z16 | z16 | z16 | z16 | z16 ||[M:3/2] F4 F4 F4 | G6 F2 E4 | D8 E4 | F8 z4 | F6 ED C4 | D4 E4 C4 | %39
w: |||||Et nunc, Re-|demp- * tor|Do- mi-|ne,|ad _ _ te|so- lum con-|
 D4 B,8 | C4 z4 C4 | D4 D4 D4 | D3 C B,2 B,4 ^A,2 | B,4 F8 | E4 F8 |[M:2/1] F8 z4 B,4 | F8 G8 | %47
w: fu- gi-|o, te|ve- rum De-|um _ _ a- *|do- *||ro. In|te spe-|
 F8 z8 | z16 | z8 z4 F4- | F4 F4 G8 | F8 z4 D4 | D8 D8 | D8 z4 B,4 | C4 D4 B,6 C2 | D8 z8 | F8 F8 | %57
w: ro,||sa-|* lus me-|a, Je-|su Chri-|ste, ad-|ju- va me. _|_|Ne un-|
 F6 E2 D2 C2 F4- | F4 E2 D2 E8 | F4 C4 C4 B,2 A,2 | C4 F,4 C4 A,4 | D8 D8 | C4 F6 E2 F4 | D8 D8 | %64
w: quam _ _ _ _|_ ob- * *|dor- mi- at _ _|_ in mor- te|a- ni-|ma me- * a,|a- ni-|
 B,16 | C12 F,4 | C8 D8 | C16 |] %68
w: ma|me- *||a.|
V:3
 c16 | c8 c8 | d8 d8 | d8 d8 | c16 | z8 c8 | d8 c4 B4- | B4 A4 B4 d4- | d2 c2 B2 A2 B4 c4 | %9
w: Tu|pau- pe-|rum re-|fu- gi-|um,|tu|lan- * guo-|* * rum re-||
 d4 e4 c8 | B8 z4 B4 | c8 d8 | c8 z4 c4- | c4 d4 d8 | d8 z8 | z16 | z16 | z8 B4 B4 | %18
w: me- * di-|um, spes|ex- su-|lum, for-|* ti- tu-|do|||la- bo-|
 B4 ^A2 ^G2 A8 | B16 | z16 | z16 | z16 | z16 | z16 | z16 | z8 c8 | c8 B8 | d8 c8 | B8 A4 d4- | %30
w: ran- * * ti-|um,|||||||ve-|ri- tas|et vi-||
 d4 c4 d4 B4- | B4 A4 G8 | F8 z8 ||[M:3/2] c4 c4 d4 | d2 c2 B4 A4 | z4 B4 B4 | c8 z4 | c4 c4 c4 | %38
w: ||ta.|Et nunc, Re-|demp- * * tor|Do- mi-|ne,|ad te so-|
 B8 E4 | F4 G8 | F4 z4 F4 | A4 A4 A4 | D4 z4 E4 | F4 d4 c4 | B4 c8 |[M:2/1] B16 | z16 | z8 z4 d4 | %48
w: lum con-|fu- gi-|o, te|ve- rum De-|um a-|do- * *||ro.||In|
 c4 d4 d4 c2 B2 | A8 z4 B4 | c8 d8 | c4 A4 z4 G4 | A8 B8 | A8 z4 G4 | E4 F4 G8 | F8 z8 | F8 F8 | %57
w: te con- fi- * *|do, sa-|lus me-|a, * Je-|su Chri-|ste, ad-|ju- * va|me.|Ne un-|
 A8 A8 | B8 B8 | c4 A4 A4 G2 F2 | A4 D4 z4 d4- | d2 c2 B2 A2 B8 | A4 d8 c4 | B8 A8 | G16 | F16- | %66
w: quam ob-|dor- mi-|at in mor- * *|* te a-||* * ni-|ma me-|a.|_|
 F16- | F16 |] %68
w: ||
V:4
 F,16 | F,8 F,8 | B,,8 B,,8 | B,8 B,8 | F,16 | z8 F,8 | D,8 E,8 | F,8 B,,8 | B,12 A,4 | %9
w: Tu|pau- pe-|rum re-|fu- gi-|um,|tu|lan- *|guo- rum|re- *|
 G,4 E,4 F,8 | B,,8 z4 B,4 | A,8 B,8 | F,8 z4 F,4- | F,4 D,4 G,8 | D,8 z4 D,4 | D,16 | E,8 F,8 | %17
w: me- * di-|um, spes|ex- su-|lum, for-|* ti- tu-|do la-|bo-|ran- *|
 G,16 | F,16 | B,,16 | z16 | z16 | z16 | z16 | z16 | z16 | F,8 F,8 | E,8 G,8 | F,8 E,4 A,4- | %29
w: |ti-|um,|||||||ve- ri-|tas et|vi- * *|
 A,4 G,4 F,4 E,2 D,2 | E,8 D,4 G,4- | G,2 F,2 F,8 E,4 | F,8 z8 ||[M:3/2] F,4 F,4 D,4 | G,8 A,4 | %35
w: |||ta.|Et nunc, Re-|demp- tor|
 B,6 A,2 G,4 | F,8 z4 | F,4 F,4 F,4 | B,,4 E,8 | D,4 E,8 | A,4 z4 A,4 | D,6 E,2 F,4 | F,4 D,4 C,4 | %43
w: Do- * mi-|ne,|ad te so-|lum con-|fu- gi-|o, te-|ve- * rum|De- * um|
 B,,8 F,4 | G,4 F,8 |[M:2/1] B,,16 | z16 | z8 z4 B,,4 | F,4 F,4 G,8 | F,8 z4 B,4- | B,4 A,4 B,8 | %51
w: a- *|* do-|ro.||In|te con- fi-|do, sa-|* lus me-|
 F,8 z4 G,4- | G,4 F,4 G,8 | D,8 z4 E,4- | E,4 D,4 E,8 | B,,8 z8 | B,,8 B,,8 | F,8 F,8 | G,8 G,8 | %59
w: a, Je-|* su Chri-|ste, ad-|* ju- va|me.|Ne un-|quam ob-|dor- mi-|
 F,8 z4 F,4 | F,16 | B,,16 | F,16 | G,8 D,8 | E,16 | z8 F,8- | F,8 B,,8 | F,16 |] %68
w: at in|mor-|te|a-|ni- *|ma|me-||a.|

